X: 42
T: Why?
N: Derived from ojibwa42.krn
C: Chippewa Songs ~ 1910
O: Red Wing, Minnesota, U.S.A
N: Chippewa Music by Frances Densmore, 1910
Z: transcribed to **kern format by Paul von Hippel and Daniel T. Shanahan
L: 1/4
M: 2/4
Q: 1/4=108
K: Db clef=bass
%%linebreak <none>
FF | 
[M:3/4]FDF | 
D3- | 
D3 | 
[M:2/4]C3/D/ | 
DD | 
D2 | 
A,2- | 
A,2 | 
D3/D/ | 
DC | 
D2 | 
F,2- | 
F,2 | 
D3/D/ | 
DC | 
D2 |]  
